!!!SOCIAL_FUNCTION:	miscellaneous songs
!!!PDT:	1956
!!!OTL: No_233_Song_Concerning_the_Removal_of_the_Seminole_to_Oklahoma_(b).krn
!!!LANG: Non-Tone
!!!LING_GROUP: Muskogean
!!!REG: Florida
**kern
*staff1
=1-
*clefF4
*k[f#]
*M2/4
4.r
8B\
=2
4G\
4B\
=3||
*M3/4
4c\
4B\
4r
=4||
*M2/4
8.B\L
16G\Jk
8G\L
8G\J
=5
4.G\
8B\
=6
4G\
4B\
=7
4c\
4B\
=8
2r
=9
8.B\L
16G\Jk
8G\L
8G\J
=10
4.G\
8d\
=11||
*M3/4
4d\
4d\
4c\
=12||
*M2/4
4.B\
8r
=13
8.B\L
16G\Jk
8G\L
8G\J
=14
4.G\
8d\
=15||
*M3/4
4B\
4B\
4G\
=16||
*M2/4
4B\
4r
=17
4r
8G\L
8G\J
=18
2G\
=19
4d\
4d\
=20
4B\
4B\
=21
8c\L
8B\J
8B\L
8G\J
=22
4c\
4r
=23
8.B\L
16G\Jk
8G\L
8G\J
=24
2G\
=25||
*M3/4
4G\
8G\L
8G\J
12G\L
12G\
12G\J
=26
4B\
8B\L
8B\J
4G\
=27||
*M2/4
4c\
4r
=28
8.B\L
16G\Jk
8G\L
8G\J
=29
4.G\
8B\
=30
4G\
4B\
=31||
*M3/4
4c\
4B\
4r
=32||
*M2/4
4r
8G\L
8G\J
=33
4.G\
8d\
=34
16d\LK
[8.B\J
4B\]
=35
4B\
4G\
=36
4B\
4r
=37
8.B\L
16G\Jk
8G\L
8G\J
=38
4.G\
8B\
=39
4G\
4B\
=40||
*M3/4
4c\
4B\
4r
=41||
*M2/4
4r
8G\L
8G\J
=42
4.G\
8d\
=43
8.d\L
16B\Jk
4B\
=44||
*M3/4
4B\
4B\
4G\
=45||
*M2/4
4B\
4r
=46
8.B\L
16G\Jk
8G\L
8G\J
=47
4.G\
8B\
=48
4G\
4B\
=49
4c\
4B\
=50
4r
8G\L
8G\J
=51
2G\
=52
4d\
4c\
=53
4B\
4B\
=54
8c\L
8c\J
8B\L
8G\J
=55
4c\
4r
=56
8.B\L
16G\Jk
8G\L
8G\J
=57
4G\
4G\
=58
8G\L
8G\J
8G\L
8G\J
=59
4G\
4G\
=60||
*M3/4
4B\
8c\L
8c\J
8B\L
8G\J
=61||
*M2/4
2B\
=62
8.B\L
16G\Jk
8G\L
8G\J
=63
4.G\
8B\
=64
4G\
4B\
=65||
*M3/4
4c\
2B\
=66||
!!pagebreak:default
*M2/4
4r
8G\L
8G\J
=67
2G\
==
*-
